X:1
T:Cantate Domino - Pitoni
T:James Gibb editions
T:#
%%score [ 1 2 3 4 ]
L:1/8
Q:1/4=140
M:3/4
K:Bb
V:1 treble nm="Soprano" snm="S"
V:2 treble nm="Alto" snm="A"
V:3 treble-8 nm="Tenor" snm="T"
V:4 bass nm="Bass" snm="B"
V:1
"^Psalm 148""^Cantate Domino" G2 G2 ^F2 | G3 G G2 | B6 | (B3 ABc | %4
w: Can- ta- te|Do- mi- no,|can-|ta\- * * *|
"^Giuseppe Ottavio Pitoni\n(1657-1743)" d6) | d4 A2 | B2 B2 A2 | B4 A2 | G3 G G2 | G3 G G2 | %10
w: |te, can-|ta- te, can-|ta- te|Do- mi- no|can- ti- cum|
 ^F2 F2 F2 | G2 G2 AA | B3 B B2 | B2 (B3 A) | B2 B2 B2 | A4 A2 | G4 G2 | (G4 ^F2) || %18
w: no- vum: laus|e- ius in ec-|cle- si- a|sanc- to\- *|rum, in ec-|cle- si-|a sanc-|to\- *|
 !fermata!G6 x2 ||[M:3/4] A2 A2 A2 | A3 A A2 | A2 G4 | A4 A2 | G2 G2 B2 |[M:3/2] A2 A2 A4 (A3 G) || %25
w: rum.|Lae- te- tur|Is- ra- el|in e-|o, lae-|te- tur, lae-|te- tur in e\- *|
[M:3/4] A4 A2 ||[M:3/2] B4 B4 A4 ||[M:3/4] A4 ^F2 | G3 G A2 | G2 G2 A2 | B3 B c2 | B2 B2 d2 | %32
w: o qui|fe- cit e-|um: et|fi- li- ae|Si- on, et|fi- li- ae|Si- on ex-|
 B2 G4 | d6 | B2 G2 G2 | B2 B2 A2 ||[M:3/2] G4 G4 (G3 ^F) ||[M:3/4] G4 ^F2 | G2 G2 A2 | B2 B2 A2 || %40
w: ul- tent,|ex\-|ul- tent, ex-|ul- tent in|re- ge su\- *|o, ex-|ul- tent, ex-|ul- tent in|
[M:3/2] G4 G4 (G3 ^F) ||[M:3/4] !fermata!G6 |] %42
w: re- ge su\- *|o.|
V:2
 D2 D2 D2 | D3 D D2 | G6 | (F2 DCDE | F6) | D4 F2 | F2 F2 F2 | F4 F2 | D3 D D2 | E3 E D2 | %10
w: Can- ta- te|Do- mi- no,|can-|ta\- * * * *||te, can-|ta- te, can-|ta- te|Do- mi- no|can- ti- cum|
 D2 D2 D2 | D2 D2 FF | F3 F G2 | G2 F4 | F2 F2 F2 | F4 F2 | D4 D2 | D6 || !fermata!D6 x2 || %19
w: no- vum: laus|e- ius in ec-|cle- si- a|sanc- to-|rum, in ec-|cle- si-|a sanc\-|to-|rum.|
[M:3/4] F2 F2 =E2 | F3 F F2 | F2 D4 | =E4 F2 | =E2 E2 G2 |[M:3/2] F2 F2 F4 (F3 =E) || %25
w: Lae- te- tur|Is- ra- el|in e-|o, lae-|te- tur, lae-|te- tur in e\- *|
[M:3/4] F4 F2 ||[M:3/2] F4 G4 =E4 ||[M:3/4] ^F4 D2 | D3 D D2 | D2 D2 F2 | F3 F F2 | F2 F2 z2 | %32
w: o qui|fe- cit e-|um: et|fi- li- ae|Si- on, et|fi- li- ae|Si- on|
 z4 G2 | F2 D2 z2 | z4 E2 | F2 F2 F2 ||[M:3/2] D4 E4 D4 ||[M:3/4] D4 D2 | D2 D2 F2 | F2 F2 F2 || %40
w: ex-|ul- tent,|ex-|ul- tent in|re- ge su-|o, ex-|ul- tent, ex-|ul- tent in|
[M:3/2] D4 E4 D4 ||[M:3/4] !fermata!D6 |] %42
w: re- ge su-|o.|
V:3
 B2 B2 A2 | B3 B B2 | (B3 ABc) | (d6- | d3 cde | f2) d2 c2 | d2 d2 c2 | d4 c2 | B3 B B2 | c3 c B2 | %10
w: Can- ta- te|Do- mi- no,|can\- * * *|ta\-||* te, can-|ta- te, can-|ta- te|Do- mi- no|can- ti- cum|
 A2 A2 A2 | B2 B2 cc | d3 d d2 | e2 c4 | d2 d2 d2 | c4 c2 | B4 B2 | A6 || !fermata!=B6 x2 || %19
w: no- vum: laus|e- ius in ec-|cle- si- a|sanc- to-|rum, in ec-|cle- si-|a sanc-|to-|rum.|
[M:3/4] d2 d2 ^c2 | d3 d d2 | d2 d4 | ^c4 =c2 | c2 c2 d2 |[M:3/2] d2 d2 c4 d4 ||[M:3/4] c4 c2 || %26
w: Lae- te- tur|Is- ra- el|in e-|o, lae-|te- tur, lae-|te- tur in e-|o qui|
[M:3/2] d4 d4 ^c4 ||[M:3/4] d4 A2 | B3 B A2 | B2 B2 c2 | d3 d c2 | d2 d2 z2 | z2 z2 e2 | d2 B2 z2 | %34
w: fe- cit e-|um: et|fi- li- ae|Si- on, et|fi- li- ae|Si- on|ex-|ul- tent,|
 z2 z2 B2 | d2 d2 c2 ||[M:3/2][K:treble-8] B4 c4 A4 ||[M:3/4] B4 A2 | B2 B2 c2 | d2 d2 c2 || %40
w: ex-|ul- tent in|re- ge su-|o, ex-|ul- tent, ex-|ul- tent in|
[M:3/2] B4 c4 A4 ||[M:3/4] !fermata!=B6 |] %42
w: re- ge su-|o.|
V:4
 G,2 G,2 D,2 | G,3 G, G,2 | (G,3 F,G,A,) | B,6- | B,6 | B,4 F,2 | B,2 B,2 F,2 | B,4 F,2 | %8
w: Can- ta- te|Do- mi- no,|can\- * * *|ta\-||te, can-|ta- te, can-|ta- te|
 G,3 G, G,2 | C3 C G,2 | D,2 D,2 D,2 | G,2 G,2 F,F, | B,3 A, G,2 | E,2 F,4 | B,,2 B,2 B,2 | %15
w: Do- mi- no|can- ti- cum|no- vum: laus|e- ius in ec-|cle- si- a|sanc- to-|rum, in ec-|
 F,4 F,2 | G,4 G,2 | D,6 || !fermata!G,6 x2 ||[M:3/4] D,2 F,2 A,2 | D,3 D, D,2 | D,2 B,4 | %22
w: cle- si-|a sanc-|to-|rum.|Lae- te- tur|Is- ra- el|in e-|
 A,4 F,2 | C2 C2 G,2 |[M:3/2] D2 D2 A,4 B,4 ||[M:3/4] F,4 F,2 ||[M:3/2] B,4 G,4 A,4 || %27
w: o, lae-|te- tur, lae-|te- tur in e-|o qui|fe- cit e-|
[M:3/4] D,4 D,2 | G,3 G, ^F,2 | G,2 G,2 =F,2 | B,3 B, A,2 | B,2 B,2 B,2 | G,2 E,4 | z2 z2 B,2 | %34
w: um: et|fi- li- ae|Si- on, et|fi- li- ae|Si- on ex-|ul- tent,|ex\-|
 G,2 E,2 E,2 | B,2 B,2 F,2 ||[M:3/2] G,4 C,4 D,4 ||[M:3/4] G,4 D,2 | G,2 G,2 F,2 | B,2 B,2 F,2 || %40
w: ul- tent ex-|ul- tent in|re- ge su-|o, ex-|ul- tent, ex-|ul- tent in|
[M:3/2] G,4 C,4 D,4 ||[M:3/4] !fermata!G,,6 |] %42
w: re- ge su-|o.|

